cloudphone-mobile/media/svg/media-newspaper.svg

<svg xmlns="http://www.w3.org/2000/svg" xmlns:xlink="http://www.w3.org/1999/xlink" preserveAspectRatio="xMidYMid" width="80" height="76" viewBox="0 0 80 76">
  <defs>
    <style>
      .cls-1 {
        stroke: #c0c9d3;
        stroke-linecap: round;
        stroke-linejoin: round;
        stroke-width: 2px;
        fill: none;
        fill-rule: evenodd;
      }
    </style>
  </defs>
  <g>
    <path d="M4.000,8.000 L2.000,8.000 C2.000,8.000 2.000,61.582 2.000,66.000 C2.000,70.418 5.582,74.000 10.000,74.000 C14.418,74.000 18.000,70.418 18.000,66.000 C18.000,61.582 18.000,8.000 18.000,8.000 L24.000,2.000 L30.000,8.000 L36.000,2.000 L42.000,8.000 L48.000,2.000 L54.000,8.000 L60.000,2.000 L66.000,8.000 L72.000,2.000 L78.000,8.000 C78.000,8.000 78.000,61.582 78.000,66.000 C78.000,70.418 74.418,74.000 70.000,74.000 C65.582,74.000 10.000,74.000 10.000,74.000 " class="cls-1"/>
    <path d="M12.000,8.000 L10.000,8.000 L10.000,66.000 " class="cls-1"/>
    <path d="M24.000,16.000 L52.000,16.000 L52.000,28.000 L24.000,28.000 L24.000,16.000 Z" class="cls-1"/>
    <path d="M56.000,60.000 L72.000,60.000 L72.000,68.000 L56.000,68.000 L56.000,60.000 Z" class="cls-1"/>
    <path d="M24.000,32.000 L72.000,32.000 L72.000,56.000 L24.000,56.000 L24.000,32.000 Z" class="cls-1"/>
    <path d="M24.000,12.000 L72.000,12.000 " class="cls-1"/>
    <path d="M56.000,16.000 L72.000,16.000 " class="cls-1"/>
    <path d="M56.000,20.000 L72.000,20.000 " class="cls-1"/>
    <path d="M56.000,24.000 L72.000,24.000 " class="cls-1"/>
    <path d="M56.000,28.000 L72.000,28.000 " class="cls-1"/>
    <path d="M24.000,60.000 L36.000,60.000 " class="cls-1"/>
    <path d="M24.000,64.000 L36.000,64.000 " class="cls-1"/>
    <path d="M24.000,68.000 L36.000,68.000 " class="cls-1"/>
    <path d="M40.000,60.000 L52.000,60.000 " class="cls-1"/>
    <path d="M40.000,64.000 L52.000,64.000 " class="cls-1"/>
    <path d="M40.000,68.000 L52.000,68.000 " class="cls-1"/>
    <path d="M60.000,64.000 L68.000,64.000 " class="cls-1"/>
    <path d="M33.000,22.000 L33.000,22.000 " class="cls-1"/>
    <path d="M38.000,22.000 L38.000,22.000 " class="cls-1"/>
    <path d="M43.000,22.000 L43.000,22.000 " class="cls-1"/>
  </g>
</svg>

<svg xmlns="http://www.w3.org/2000/svg" preserveAspectRatio="xMidYMid" width="80" height="76" viewBox="0 0 80 76"><defs><style>.cls-1{stroke:#c0c9d3;stroke-linecap:round;stroke-linejoin:round;stroke-width:2px;fill:none;fill-rule:evenodd}</style></defs><path d="M4 8H2v58a8 8 0 0 0 16 0V8l6-6 6 6 6-6 6 6 6-6 6 6 6-6 6 6 6-6 6 6v58a8 8 0 0 1-8 8H10" class="cls-1"/><path d="M12 8h-2v58M24 16h28v12H24V16zM56 60h16v8H56v-8zM24 32h48v24H24V32zM24 12h48M56 16h16M56 20h16M56 24h16M56 28h16M24 60h12M24 64h12M24 68h12M40 60h12M40 64h12M40 68h12M60 64h8M43 22" class="cls-1"/></svg>
